docs/logo.svg

<svg width="284" height="323" viewBox="0 0 284 323" fill="none" xmlns="http://www.w3.org/2000/svg">
<g filter="url(#filter0_d)">
<path d="M46.5293 209.339C26.146 197.801 26.2573 168.398 46.7275 157.014L131.1 110.092C140.266 104.995 151.428 105.054 160.539 110.249L239.189 155.089C258.91 166.332 259.481 194.559 240.23 206.591L161.004 256.107C151.674 261.939 139.9 262.195 130.325 256.775L46.5293 209.339Z" fill="url(#paint0_linear)"/>
</g>
<g filter="url(#filter1_d)">
<path d="M46.5293 189.339C26.146 177.801 26.2573 148.398 46.7275 137.014L131.1 90.0924C140.266 84.9951 151.428 85.0544 160.539 90.2489L239.189 135.089C258.91 146.332 259.481 174.559 240.23 186.591L161.004 236.107C151.674 241.939 139.9 242.195 130.325 236.775L46.5293 189.339Z" fill="#146DE6"/>
</g>
<g filter="url(#filter2_d)">
<path d="M47.5293 169.339C27.146 157.801 27.2573 128.398 47.7275 117.014L132.1 70.0924C141.266 64.9951 152.428 65.0544 161.539 70.2489L240.189 115.089C259.91 126.332 260.481 154.559 241.23 166.591L162.004 216.107C152.674 221.939 140.9 222.195 131.325 216.775L47.5293 169.339Z" fill="#146DE6"/>
</g>
<path d="M97.2109 146.021C97.2109 148.307 96.3848 150.1 94.7324 151.4C93.0801 152.701 90.8008 153.352 87.8945 153.352C84.9883 153.352 82.6094 152.9 80.7578 151.998V148.025C81.9297 148.576 83.1719 149.01 84.4844 149.326C85.8086 149.643 87.0391 149.801 88.1758 149.801C89.8398 149.801 91.0645 149.484 91.8496 148.852C92.6465 148.219 93.0449 147.369 93.0449 146.303C93.0449 145.342 92.6816 144.527 91.9551 143.859C91.2285 143.191 89.7285 142.4 87.4551 141.486C85.1113 140.537 83.459 139.453 82.498 138.234C81.5371 137.016 81.0566 135.551 81.0566 133.84C81.0566 131.695 81.8184 130.008 83.3418 128.777C84.8652 127.547 86.9102 126.932 89.4766 126.932C91.9375 126.932 94.3867 127.471 96.8242 128.549L95.4883 131.977C93.2031 131.016 91.1641 130.535 89.3711 130.535C88.0117 130.535 86.9805 130.834 86.2773 131.432C85.5742 132.018 85.2227 132.797 85.2227 133.77C85.2227 134.438 85.3633 135.012 85.6445 135.492C85.9258 135.961 86.3887 136.406 87.0332 136.828C87.6777 137.25 88.8379 137.807 90.5137 138.498C92.4004 139.283 93.7832 140.016 94.6621 140.695C95.541 141.375 96.1855 142.143 96.5957 142.998C97.0059 143.854 97.2109 144.861 97.2109 146.021ZM114.388 150.012C115.396 150.012 116.404 149.854 117.412 149.537V152.648C116.955 152.848 116.363 153.012 115.636 153.141C114.921 153.281 114.177 153.352 113.404 153.352C109.49 153.352 107.533 151.289 107.533 147.164V136.688H104.879V134.859L107.726 133.348L109.132 129.234H111.681V133.559H117.218V136.688H111.681V147.094C111.681 148.09 111.927 148.828 112.42 149.309C112.923 149.777 113.58 150.012 114.388 150.012ZM136.575 133.207C137.407 133.207 138.093 133.266 138.632 133.383L138.228 137.232C137.642 137.092 137.032 137.021 136.4 137.021C134.747 137.021 133.405 137.561 132.374 138.639C131.355 139.717 130.845 141.117 130.845 142.84V153H126.714V133.559H129.948L130.493 136.986H130.704C131.349 135.826 132.187 134.906 133.218 134.227C134.261 133.547 135.38 133.207 136.575 133.207ZM161.364 153L160.784 150.451H160.573C159.999 151.354 159.179 152.062 158.112 152.578C157.057 153.094 155.85 153.352 154.491 153.352C152.136 153.352 150.378 152.766 149.218 151.594C148.057 150.422 147.477 148.646 147.477 146.268V133.559H151.643V145.547C151.643 147.035 151.948 148.154 152.557 148.904C153.167 149.643 154.122 150.012 155.423 150.012C157.157 150.012 158.429 149.496 159.237 148.465C160.057 147.422 160.468 145.682 160.468 143.244V133.559H164.616V153H161.364ZM183.745 153.352C180.803 153.352 178.565 152.496 177.03 150.785C175.506 149.062 174.745 146.596 174.745 143.385C174.745 140.115 175.541 137.602 177.135 135.844C178.741 134.086 181.055 133.207 184.079 133.207C186.129 133.207 187.975 133.588 189.616 134.35L188.368 137.672C186.621 136.992 185.18 136.652 184.043 136.652C180.68 136.652 178.998 138.885 178.998 143.35C178.998 145.529 179.414 147.17 180.246 148.271C181.09 149.361 182.321 149.906 183.938 149.906C185.778 149.906 187.518 149.449 189.159 148.535V152.139C188.42 152.572 187.629 152.883 186.786 153.07C185.954 153.258 184.94 153.352 183.745 153.352ZM208.445 153H204.244V130.904H196.686V127.301H216.004V130.904H208.445V153Z" fill="white"/>
<defs>
<filter id="filter0_d" x="9.83411" y="54.206" width="265.959" height="265.966" filterUnits="userSpaceOnUse" color-interpolation-filters="sRGB">
<feFlood flood-opacity="0" result="BackgroundImageFix"/>
<feColorMatrix in="SourceAlpha" type="matrix" values="0 0 0 0 0 0 0 0 0 0 0 0 0 0 0 0 0 0 127 0"/>
<feOffset dy="5"/>
<feGaussianBlur stdDeviation="4.5"/>
<feColorMatrix type="matrix" values="0 0 0 0 0.0833333 0 0 0 0 0.0833333 0 0 0 0 0.0833333 0 0 0 0.25 0"/>
<feBlend mode="normal" in2="BackgroundImageFix" result="effect1_dropShadow"/>
<feBlend mode="normal" in="SourceGraphic" in2="effect1_dropShadow" result="shape"/>
</filter>
<filter id="filter1_d" x="9.83411" y="34.206" width="265.959" height="265.966" filterUnits="userSpaceOnUse" color-interpolation-filters="sRGB">
<feFlood flood-opacity="0" result="BackgroundImageFix"/>
<feColorMatrix in="SourceAlpha" type="matrix" values="0 0 0 0 0 0 0 0 0 0 0 0 0 0 0 0 0 0 127 0"/>
<feOffset dy="5"/>
<feGaussianBlur stdDeviation="4.5"/>
<feColorMatrix type="matrix" values="0 0 0 0 0.0833333 0 0 0 0 0.0833333 0 0 0 0 0.0833333 0 0 0 0.25 0"/>
<feBlend mode="normal" in2="BackgroundImageFix" result="effect1_dropShadow"/>
<feBlend mode="normal" in="SourceGraphic" in2="effect1_dropShadow" result="shape"/>
</filter>
<filter id="filter2_d" x="10.8341" y="14.206" width="265.959" height="265.966" filterUnits="userSpaceOnUse" color-interpolation-filters="sRGB">
<feFlood flood-opacity="0" result="BackgroundImageFix"/>
<feColorMatrix in="SourceAlpha" type="matrix" values="0 0 0 0 0 0 0 0 0 0 0 0 0 0 0 0 0 0 127 0"/>
<feOffset dy="5"/>
<feGaussianBlur stdDeviation="4.5"/>
<feColorMatrix type="matrix" values="0 0 0 0 0.0833333 0 0 0 0 0.0833333 0 0 0 0 0.0833333 0 0 0 0.25 0"/>
<feBlend mode="normal" in2="BackgroundImageFix" result="effect1_dropShadow"/>
<feBlend mode="normal" in="SourceGraphic" in2="effect1_dropShadow" result="shape"/>
</filter>
<linearGradient id="paint0_linear" x1="69.9485" y1="111.535" x2="212.878" y2="251.432" gradientUnits="userSpaceOnUse">
<stop stop-color="#146DE6"/>
<stop offset="1" stop-color="#146DE6" stop-opacity="0.88"/>
</linearGradient>
</defs>
</svg>

<svg xmlns="http://www.w3.org/2000/svg" width="284" height="323" fill="none">
  <path fill="url(#paint0_linear)" d="M46.5 209.3a30 30 0 0 1 .2-52.3l84.4-47a30 30 0 0 1 29.4.2l78.7 44.9a30 30 0 0 1 1 51.5L161 256a30 30 0 0 1-30.7.7l-83.8-47.5z" filter="url(#filter0_d)"/>
  <path fill="#146DE6" d="M46.5 189.3a30 30 0 0 1 .2-52.3l84.4-47a30 30 0 0 1 29.4.2l78.7 44.9a30 30 0 0 1 1 51.5L161 236a30 30 0 0 1-30.7.7l-83.8-47.5z" filter="url(#filter1_d)"/>
  <path fill="#146DE6" d="M47.5 169.3a30 30 0 0 1 .2-52.3l84.4-47a30 30 0 0 1 29.4.2l78.7 44.9a30 30 0 0 1 1 51.5L162 216a30 30 0 0 1-30.7.7l-83.8-47.5z" filter="url(#filter2_d)"/>
  <path fill="#fff" d="M97.2 146c0 2.3-.8 4.1-2.5 5.4-1.6 1.3-3.9 2-6.8 2-3 0-5.3-.5-7.1-1.4v-4a19.4 19.4 0 0 0 7.4 1.8c1.6 0 2.9-.3 3.6-1a3 3 0 0 0 1.2-2.5c0-1-.3-1.8-1-2.4-.8-.7-2.3-1.5-4.5-2.4-2.4-1-4-2-5-3.3a6.9 6.9 0 0 1-1.4-4.4c0-2.1.7-3.8 2.2-5a9.5 9.5 0 0 1 6.2-1.9c2.4 0 4.9.6 7.3 1.6l-1.3 3.5a16 16 0 0 0-6.1-1.5c-1.4 0-2.4.3-3.1 1-.7.5-1 1.3-1 2.3 0 .6 0 1.2.3 1.7s.8 1 1.4 1.3c.7.4 1.8 1 3.5 1.7a19 19 0 0 1 4.2 2.2c.8.7 1.5 1.4 1.9 2.3.4.9.6 1.9.6 3zm17.2 4c1 0 2-.1 3-.5v3.1a11.6 11.6 0 0 1-4 .7c-4 0-5.9-2-5.9-6.1v-10.5H105v-1.8l2.8-1.6 1.4-4h2.6v4.3h5.5v3h-5.5v10.5c0 1 .2 1.7.7 2.2.5.5 1.2.7 2 .7zm22.2-16.8c.8 0 1.5 0 2 .2l-.4 3.8-1.8-.2c-1.7 0-3 .6-4 1.6-1 1.1-1.6 2.5-1.6 4.2V153h-4v-19.4h3.1l.6 3.4h.2c.6-1.2 1.5-2 2.5-2.8a6 6 0 0 1 3.4-1zm24.8 19.8l-.6-2.5h-.2c-.6.9-1.4 1.6-2.5 2-1 .6-2.3.9-3.6.9-2.4 0-4.1-.6-5.3-1.8-1.1-1.2-1.7-3-1.7-5.3v-12.7h4.1v12c0 1.4.3 2.6 1 3.3.6.7 1.5 1.1 2.8 1.1 1.8 0 3-.5 3.8-1.5.9-1 1.3-2.8 1.3-5.3v-9.6h4.1V153h-3.2zm22.3.4c-2.9 0-5.1-.9-6.7-2.6-1.5-1.7-2.3-4.2-2.3-7.4 0-3.3.8-5.8 2.4-7.6 1.6-1.7 4-2.6 7-2.6 2 0 3.9.4 5.5 1.2l-1.2 3.3c-1.8-.7-3.2-1-4.4-1-3.3 0-5 2.2-5 6.7 0 2.1.4 3.8 1.2 4.9.9 1 2.1 1.6 3.7 1.6 1.9 0 3.6-.5 5.3-1.4v3.6c-.8.5-1.6.8-2.4 1-.8.2-1.9.3-3 .3zm24.7-.4h-4.2v-22.1h-7.5v-3.6H216v3.6h-7.6V153z"/>
  <defs>
    <filter id="filter0_d" width="266" height="266" x="9.8" y="54.2" color-interpolation-filters="sRGB" filterUnits="userSpaceOnUse">
      <feFlood flood-opacity="0" result="BackgroundImageFix"/>
      <feColorMatrix in="SourceAlpha" values="0 0 0 0 0 0 0 0 0 0 0 0 0 0 0 0 0 0 127 0"/>
      <feOffset dy="5"/>
      <feGaussianBlur stdDeviation="4.5"/>
      <feColorMatrix values="0 0 0 0 0.0833333 0 0 0 0 0.0833333 0 0 0 0 0.0833333 0 0 0 0.25 0"/>
      <feBlend in2="BackgroundImageFix" result="effect1_dropShadow"/>
      <feBlend in="SourceGraphic" in2="effect1_dropShadow" result="shape"/>
    </filter>
    <filter id="filter1_d" width="266" height="266" x="9.8" y="34.2" color-interpolation-filters="sRGB" filterUnits="userSpaceOnUse">
      <feFlood flood-opacity="0" result="BackgroundImageFix"/>
      <feColorMatrix in="SourceAlpha" values="0 0 0 0 0 0 0 0 0 0 0 0 0 0 0 0 0 0 127 0"/>
      <feOffset dy="5"/>
      <feGaussianBlur stdDeviation="4.5"/>
      <feColorMatrix values="0 0 0 0 0.0833333 0 0 0 0 0.0833333 0 0 0 0 0.0833333 0 0 0 0.25 0"/>
      <feBlend in2="BackgroundImageFix" result="effect1_dropShadow"/>
      <feBlend in="SourceGraphic" in2="effect1_dropShadow" result="shape"/>
    </filter>
    <filter id="filter2_d" width="266" height="266" x="10.8" y="14.2" color-interpolation-filters="sRGB" filterUnits="userSpaceOnUse">
      <feFlood flood-opacity="0" result="BackgroundImageFix"/>
      <feColorMatrix in="SourceAlpha" values="0 0 0 0 0 0 0 0 0 0 0 0 0 0 0 0 0 0 127 0"/>
      <feOffset dy="5"/>
      <feGaussianBlur stdDeviation="4.5"/>
      <feColorMatrix values="0 0 0 0 0.0833333 0 0 0 0 0.0833333 0 0 0 0 0.0833333 0 0 0 0.25 0"/>
      <feBlend in2="BackgroundImageFix" result="effect1_dropShadow"/>
      <feBlend in="SourceGraphic" in2="effect1_dropShadow" result="shape"/>
    </filter>
    <linearGradient id="paint0_linear" x1="69.9" x2="212.9" y1="111.5" y2="251.4" gradientUnits="userSpaceOnUse">
      <stop stop-color="#146DE6"/>
      <stop offset="1" stop-color="#146DE6" stop-opacity=".9"/>
    </linearGradient>
  </defs>
</svg>
